X:1
T:Non tua vult
T:Daniel Friderici
T:Source : Bicinia sacra---Rostock---J.Richelius---1642. Editor : André Vierendeels (04/07/17).
T:Notes : Original clefs : G2, G2 Editorial accidentals above the staff 
T:Non tua vult
T:©
T:©
T:©
C:Daniel Friderici
Z:©
%%score [ 1 2 ]
L:1/8
Q:1/4=120
M:2/2
K:C
V:1 treble nm="Soprano 1" snm="S 1"
V:2 treble nm="Soprano 2" snm="S 2"
V:1
 c8 | g8 | e8 | z4 c4 | g8 | e4 g4 | f4 e4 | d4 c4- | c4 G4 | A4 B4 | c4 G4 | z4 d4- | d2 A2 B4- | %13
w: Non|tu-|a,|non|tu-|a, non|tu- a|vult ho-|* mi-|nes ces-|san- tes,|ho-|* mi- nes|
 B2 c2 d2 cd | e2 c2 z4 | g2 g2 e2 e2 | f2 ed e2 cd | edcB c4 | c2 c2 g4- | g2 f2 e4- | e2 d2 c4- | %21
w: _ ces- san- * *|* ts|ho- mi- nes ces-|san- * * * * *||tes, ces- san-|||
 c2 B2 A4- | A2 G2 A2 B2 | c2 B2 c2 d2 | e2 d2 e2 f2 | g8 | e4 f4- | f2 f2 e4 | d2 c2 c4- | %29
w: |||||tes vi-|* ne- a|Chri- * *|
 c2 BA B4 | c8 :: z8 | d3 d d2 c2 | B4 G4 | G3 A B2 c2 | d4 G4 | z8 | z4 g4 | edef g2 e2 | %39
w: |ste,||prae- mi- a fert|gra- tis,|prae- mi- a fert|gra- tis,||qui|fa- * * * * ci-|
 d2 c4 B2 | c8 | z4 g4 | edef g2 e2 | fefg a2 g2 | f4 e2 g2 | a3 g f2 e2 | a4 g2 e2 | f3 g a2 g2 | %48
w: en- da fa-|cit,|qui|fa- * * * * ci-|en- * * * * *|fa- cit, qui|fa- ci- en- da|fa- cit, qui|fa- ci- en- da|
 f8 | e8 |] %50
w: fa-|cit.|
V:2
 z8 | c8 | g8 | e8 | z4 c4 | g4 e4 | d4 g4 | f4 e2 g2 | e2 c2 d4 | c4 G4 | A4 B4 | c4 G4 | z4 d4- | %13
w: |Non|tu-|a,|non|tu- a,|non tu-|a vult, non|tu- a vult|ho- mi-|nes ces-|san- tes,|ho|
 d2 A2 B2 AB | c2 e2 cBcd | edef g4 | a4 z2 g2 | g6 f2 | e6 d2 | c6 B2 | A6 G2 | F2 G2 A2 B2 | %22
w: _ mi- * * *|nes ces- san- * * *||tes, ces-|san- *|||||
 c2 B2 c2 d2 | e2 d2 e2 f2 | g8 | c2 d2 e2 f2 | g4 a4- | a2 a2 g4 | f2 e2 e2 dc | d8 | c8 :: %31
w: ||||tes vi-|* ne- a|Chri- * * * *||ste,|
 d3 d d2 c2 | B4 G4 | G3 A B2 c2 | d4 G4 | z4 g4 | edef g2 e2 | d2 c4 B2 | c8 | z4 g4 | %40
w: prae- mi- a fert|gra- tis,|prae- mi- a fert|gra- tis,|qui|fa- * * * * ci-|en- da fa-|cit,|qui|
 edef g2 e2 | d2 c4 B2 | c4 z2 g2 | a3 g f2 e2 | a4 g2 e2 | f3 g a2 g2 | f4 e2 g2 | a3 g f2 e2 | %48
w: fa- * * * * ci-|en- da fa-|cit, qui|fa- ci- en- da|fa- cit, qui|fa- ci- en- da|fa- cit, qui|fa- ci- en- da|
 a8 | g8 |] %50
w: fa-|cit.|

